app/images/src/icons/whuts.svg

<svg width="25" height="25" viewBox="0 0 25 25" fill="none" xmlns="http://www.w3.org/2000/svg">
<g clip-path="url(#clip0_281_727)">
<path d="M18.2366 14.9031L18.2272 14.9813C15.9366 13.8396 15.697 13.6875 15.4012 14.1313C15.196 14.4386 14.5981 15.1354 14.4179 15.3417C14.2356 15.5448 14.0543 15.5604 13.7449 15.4198C13.4324 15.2636 12.4293 14.9354 11.2418 13.8729C10.3168 13.0448 9.69598 12.0292 9.51264 11.7167C9.20744 11.1896 9.84598 11.1146 10.4272 10.0146C10.5314 9.79585 10.4783 9.62397 10.4012 9.46876C10.3231 9.31251 9.70118 7.78126 9.44077 7.17085C9.19077 6.56251 8.93348 6.6396 8.74077 6.6396C8.14077 6.58751 7.70223 6.59585 7.31577 6.99793C5.63452 8.84585 6.05848 10.7521 7.49702 12.7792C10.3241 16.4792 11.8304 17.1604 14.5845 18.1063C15.3283 18.3427 16.0064 18.3094 16.5429 18.2323C17.1408 18.1375 18.3835 17.4813 18.6429 16.7469C18.9085 16.0125 18.9085 15.4031 18.8304 15.2625C18.7533 15.1219 18.5491 15.0438 18.2366 14.9031Z" fill="white"/>
<path d="M21.375 3.59279C13.3656 -4.14992 0.110417 1.46571 0.105208 12.3886C0.105208 14.572 0.677083 16.7011 1.76667 18.5813L0 25.0001L6.59896 23.2793C14.8333 27.7272 24.9958 21.8209 25 12.3949C25 9.08654 23.7083 5.973 21.3594 3.63342L21.375 3.59279ZM22.9188 12.3605C22.9125 20.3115 14.1844 25.2772 7.28125 21.2188L6.90625 20.9959L3 22.0115L4.04688 18.2147L3.79792 17.824C-0.497917 10.9855 4.4375 2.048 12.575 2.048C13.9339 2.04458 15.28 2.31073 16.5354 2.83105C17.7908 3.35136 18.9305 4.11551 19.8885 5.07925C20.8518 6.03089 21.6159 7.16488 22.1362 8.41503C22.6564 9.66517 22.9225 11.0064 22.9188 12.3605Z" fill="white"/>
</g>
<defs>
<clipPath id="clip0_281_727">
<rect width="25" height="25" fill="white"/>
</clipPath>
</defs>
</svg>

<svg width="25" height="25" fill="none" xmlns="http://www.w3.org/2000/svg"><g clip-path="url(#clip0_281_727)" fill="#fff"><path d="M18.237 14.903l-.01.078c-2.29-1.141-2.53-1.293-2.826-.85-.205.308-.803 1.004-.983 1.21-.182.204-.364.22-.673.079-.313-.156-1.316-.485-2.503-1.547-.925-.828-1.546-1.844-1.73-2.156-.305-.527.334-.602.915-1.702.104-.22.051-.391-.026-.546-.078-.156-.7-1.688-.96-2.298-.25-.608-.508-.531-.7-.531-.6-.052-1.039-.044-1.425.358-1.681 1.848-1.258 3.754.181 5.781 2.827 3.7 4.333 4.381 7.088 5.327.743.237 1.421.203 1.958.126.598-.095 1.84-.75 2.1-1.485.265-.735.265-1.344.187-1.485-.077-.14-.28-.218-.593-.359z"/><path d="M21.375 3.593C13.365-4.15.11 1.466.105 12.389c0 2.183.572 4.312 1.662 6.192L0 25.001l6.599-1.722C14.833 27.727 24.996 21.821 25 12.395c0-3.308-1.292-6.422-3.64-8.762l.015-.04zm1.544 8.768c-.006 7.95-8.735 12.916-15.638 8.858l-.375-.223L3 22.012l1.047-3.797-.25-.391c-4.295-6.839.64-15.776 8.778-15.776a10.276 10.276 0 017.314 3.031 10.196 10.196 0 013.03 7.282z"/></g><defs><clipPath id="clip0_281_727"><path fill="#fff" d="M0 0h25v25H0z"/></clipPath></defs></svg>
